icons/expression-defined-color-16.svg

<?xml version="1.0" encoding="UTF-8"?><svg id="icons" xmlns="http://www.w3.org/2000/svg" viewBox="0 0 16 16"><defs><style>.cls-1{fill:none;}</style></defs><path d="M12.57812,15h-.57812v-1h.57812c.78418,0,1.42188-.6377,1.42188-1.42188v-2.57812c0-.59668,.2627-1.13281,.67871-1.5-.41602-.36719-.67871-.90332-.67871-1.5v-2.57812c0-.78418-.6377-1.42188-1.42188-1.42188h-.57812v-1h.57812c1.33496,0,2.42188,1.08691,2.42188,2.42188v2.57812c0,.55176,.44824,1,1,1v1c-.55176,0-1,.44824-1,1v2.57812c0,1.33496-1.08691,2.42188-2.42188,2.42188Zm-8.57812-1h-.57812c-.78418,0-1.42188-.6377-1.42188-1.42188v-2.57812c0-.59668-.2627-1.13281-.67871-1.5,.41602-.36719,.67871-.90332,.67871-1.5v-2.57812c0-.78418,.6377-1.42188,1.42188-1.42188h.57812v-1h-.57812c-1.33496,0-2.42188,1.08691-2.42188,2.42188v2.57812c0,.55176-.44824,1-1,1v1c.55176,0,1,.44824,1,1v2.57812c0,1.33496,1.08691,2.42188,2.42188,2.42188h.57812v-1Zm8-4H4v3H12v-3Zm-2.6153-3h-2.76923l-.85724,2h-1.08777L7.67035,2h.65955l2.99969,7h-1.08771l-.85718-2Zm-.42859-1l-.95599-2.23047-.95599,2.23047h1.91199Z"/><rect class="cls-1" width="16" height="16"/></svg>

<svg xmlns="http://www.w3.org/2000/svg" viewBox="0 0 16 16"><path d="M12.578 15H12v-1h.578c.784 0 1.422-.638 1.422-1.422V10c0-.597.263-1.133.679-1.5A1.996 1.996 0 0 1 14 7V4.422C14 3.638 13.362 3 12.578 3H12V2h.578A2.425 2.425 0 0 1 15 4.422V7a1 1 0 0 0 1 1v1a1 1 0 0 0-1 1v2.578A2.425 2.425 0 0 1 12.578 15zM4 14h-.578A1.423 1.423 0 0 1 2 12.578V10c0-.597-.263-1.133-.679-1.5C1.737 8.133 2 7.597 2 7V4.422C2 3.638 2.638 3 3.422 3H4V2h-.578A2.425 2.425 0 0 0 1 4.422V7a1 1 0 0 1-1 1v1a1 1 0 0 1 1 1v2.578A2.425 2.425 0 0 0 3.422 15H4v-1zm8-4H4v3h8v-3zM9.385 7h-2.77l-.857 2H4.67l3-7h.66l3 7h-1.088l-.857-2zm-.429-1L8 3.77 7.044 6h1.912z"/><path fill="none" d="M0 0h16v16H0z"/></svg>
